X:1
T:Title
%%score { ( 1 3 ) | 2 }
L:1/8
M:4/4
K:E
V:1 treble nm="Grand Piano"
V:3 treble 
V:2 bass 
V:1
 z4 z2[Q:1/4=108] G2 | G2 E2 A2 G2 | [EG]2 [DF]4 [EG]2 | [FA]2 [DF]2 [GB]2 [FA]2 |[M:3/4] G6 | %5
[M:1/4] G2 |[M:4/4] G2 E2 A2 G2 | [EG]2 [DF]4 [=DG]2 | [CA]2 [CF]2 E2 z A, |[M:3/4] E6 | %10
[M:1/4] [GB]2 |[M:4/4] [GB]2 [EG]2 [Ge]2 [Bd]2 | [Bd]2 [Ac]4 [Ac]2 | [^Ac]2 [Ae]2 [Fd]2 [Ec]2 | %14
[M:3/4] [DB]6 |[M:1/4] [FA]2 |[M:4/4] G2 G2 A2 B2 | B2 A4 [CF]2 | E2 D2 C2 D2 |[M:3/4] E6 |] %20
V:2
 z4 z2 [E,B,E]2 | [E,B,E]2 [E,G,]2 [E,CE]2 [E,B,E]2 | [B,,B,]2 [B,,B,]4 [B,,B,]2 | %3
 [B,,B,]2 [B,,B,]2 [B,,B,]2 [B,,B,]2 |[M:3/4] [E,B,E]6 |[M:1/4] [E,B,E]2 | %6
[M:4/4] [E,B,E]2 [E,G,]2 [E,CE]2 [E,B,E]2 | [B,,B,]2 [B,,B,]4 [E,B,]2 | %8
 [A,,A,]2 [A,,A,]2 [B,,G,B,]2 .[B,,F,B,]2 |[M:3/4] [E,G,B,]6 |[M:1/4] [E,B,]2 | %11
[M:4/4] [E,B,]2 [E,B,]2 [E,B,]2 [E,E]2 | [A,E]2 [A,E]4 [A,E]2 | [F,E]2 [F,C]2 [F,B,]2 [F,^A,]2 | %14
[M:3/4] [B,,B,]6 |[M:1/4] [B,,B,]2 |[M:4/4] [E,B,E]2 [E,B,E]2 [F,B,D]2 [G,B,=D]2 | %17
 [A,C]2 [A,C]4 [A,,A,]2 | [B,,G,B,]2 [B,,F,B,]2 [B,,A,B,]2 [B,,A,B,]2 |[M:3/4] [E,G,B,]6 |] %20
V:3
 x8 | x8 | x8 | x8 |[M:3/4] x6 |[M:1/4] x2 |[M:4/4] x8 | x8 | z4 z2 D2 |[M:3/4] x6 |[M:1/4] x2 | %11
[M:4/4] x8 | x8 | x8 |[M:3/4] x6 |[M:1/4] x2 |[M:4/4] x8 | x8 | x8 |[M:3/4] x6 |] %20

